src/assets/techStackImages/gsapLogo.svg

<svg xmlns="http://www.w3.org/2000/svg" width="200" fill="none" viewBox="0 0 82 30">
  <path fill="#0ae448" d="M23.81 14.013v.013l-1.075 4.665c-.058.264-.322.458-.626.458H20.81a.218.218 0 0 0-.208.155c-1.198 4.064-2.82 6.858-4.962 8.535-1.822 1.428-4.068 2.093-7.069 2.093-2.696 0-4.514-.867-6.056-2.578C.478 25.09-.364 21.388.146 16.926 1.065 8.549 5.41.096 13.776.096c2.545-.023 4.543.762 5.933 2.33 1.47 1.657 2.216 4.154 2.22 7.421a.55.55 0 0 1-.549.536h-6.13a.42.42 0 0 1-.407-.41c-.05-2.259-.72-3.36-2.052-3.36-2.35 0-3.736 3.19-4.471 4.959-1.027 2.47-1.55 5.152-1.447 7.824.049 1.244.249 2.994 1.43 3.718 1.047.643 2.541.217 3.446-.495.904-.711 1.632-1.942 1.938-3.065.043-.156.046-.277.005-.332-.043-.055-.162-.068-.253-.068h-1.574a.572.572 0 0 1-.438-.202.42.42 0 0 1-.087-.362l1.076-4.674c.053-.24.27-.42.537-.453v-.011h10.33c.024 0 .049 0 .072.005.268.034.457.284.452.556h.002Z"/>
  <path fill="#0ae448" d="M41.594 8.65a.548.548 0 0 1-.548.531H35.4c-.37 0-.679-.3-.679-.665 0-1.648-.57-2.45-1.736-2.45s-1.918.717-1.94 1.968c-.025 1.395.764 2.662 3.01 4.84 2.957 2.774 4.142 5.232 4.085 8.48C38.047 26.605 34.476 30 29.042 30c-2.775 0-4.895-.743-6.305-2.207-1.431-1.486-2.087-3.668-1.95-6.485a.548.548 0 0 1 .549-.53h5.84a.55.55 0 0 1 .422.209.48.48 0 0 1 .106.384c-.065 1.016.112 1.775.512 2.195.256.272.613.41 1.058.41 1.079 0 1.711-.763 1.735-2.09.02-1.148-.343-2.155-2.321-4.19-2.555-2.496-4.846-5.075-4.775-9.13.042-2.351.976-4.502 2.631-6.056C28.294.868 30.687 0 33.465 0c2.783.02 4.892.813 6.269 2.359 1.304 1.466 1.932 3.582 1.862 6.29h-.002Z"/>
  <path fill="#0ae448" d="m59.096 29.012.037-27.932a.525.525 0 0 0-.529-.533h-8.738c-.294 0-.423.252-.507.42L36.707 28.842v.005l-.005.006c-.14.343.126.71.497.71h6.108c.33 0 .548-.1.656-.308l1.213-2.915c.149-.388.177-.424.601-.424h5.836c.406 0 .415.008.408.405l-.131 2.71a.525.525 0 0 0 .529.532h6.17a.522.522 0 0 0 .403-.182.458.458 0 0 0 .104-.369Zm-10.81-9.326c-.057 0-.102-.001-.138-.005a.146.146 0 0 1-.13-.183c.012-.041.029-.095.053-.163l4.377-10.827c.038-.107.086-.212.136-.314.071-.145.157-.155.184-.047.023.09-.502 11.118-.502 11.118-.041.413-.06.43-.467.464l-3.509-.041h-.008l.003-.002Z"/>
  <path fill="#0ae448" d="M71.545.547h-4.639c-.245 0-.52.13-.585.422l-6.455 28.029a.423.423 0 0 0 .088.364.572.572 0 0 0 .437.202h5.798c.311 0 .525-.153.583-.418 0 0 .703-3.168.704-3.178.05-.247-.036-.439-.258-.555-.105-.054-.209-.108-.312-.163l-1.005-.522-1-.522-.387-.201a.186.186 0 0 1-.102-.17.199.199 0 0 1 .198-.194l3.178.014c.95.005 1.901-.062 2.836-.234 6.58-1.215 10.95-6.485 11.076-13.656.107-6.12-3.309-9.221-10.15-9.221l-.005.003Zm-1.579 16.68h-.124c-.278 0-.328-.03-.337-.04-.004-.007 1.833-8.073 1.834-8.084.047-.233.045-.367-.099-.446-.184-.102-2.866-1.516-2.866-1.516a.188.188 0 0 1-.101-.172.197.197 0 0 1 .197-.192h4.241c1.32.04 2.056 1.221 2.021 3.237-.061 3.492-1.721 7.09-4.766 7.214Z"/>
</svg>

<?xml version="1.0" encoding="UTF-8" standalone="no"?>
<!DOCTYPE svg PUBLIC "-//W3C//DTD SVG 1.1//EN" "http://www.w3.org/Graphics/SVG/1.1/DTD/svg11.dtd">
<svg width="100%" height="100%" viewBox="0 0 349 128" version="1.1" xmlns="http://www.w3.org/2000/svg" xmlns:xlink="http://www.w3.org/1999/xlink" xml:space="preserve" xmlns:serif="http://www.serif.com/" style="fill-rule:evenodd;clip-rule:evenodd;stroke-linejoin:round;stroke-miterlimit:2;">
    <g transform="matrix(1,0,0,1,-777.108441,-53.879181)">
        <g transform="matrix(1.024,0,0,1.024,525.372366,53.879181)">
            <g transform="matrix(4.166667,0,0,4.166667,245.833333,0)">
                <path d="M23.81,14.013L23.81,14.026L22.735,18.691C22.677,18.955 22.413,19.149 22.109,19.149L20.81,19.149C20.714,19.149 20.63,19.212 20.602,19.304C19.404,23.368 17.782,26.162 15.64,27.839C13.818,29.267 11.572,29.932 8.571,29.932C5.875,29.932 4.057,29.065 2.515,27.354C0.478,25.09 -0.364,21.388 0.146,16.926C1.065,8.549 5.41,0.096 13.776,0.096C16.321,0.073 18.319,0.858 19.709,2.426C21.179,4.083 21.925,6.58 21.929,9.847C21.921,10.143 21.676,10.383 21.38,10.383L15.25,10.383C15.028,10.376 14.848,10.195 14.843,9.973C14.793,7.714 14.123,6.613 12.791,6.613C10.441,6.613 9.055,9.803 8.32,11.572C7.293,14.042 6.77,16.724 6.873,19.396C6.922,20.64 7.122,22.39 8.303,23.114C9.35,23.757 10.844,23.331 11.749,22.619C12.653,21.908 13.381,20.677 13.687,19.554C13.73,19.398 13.733,19.277 13.692,19.222C13.649,19.167 13.53,19.154 13.439,19.154L11.865,19.154C11.696,19.155 11.536,19.081 11.427,18.952C11.343,18.852 11.311,18.718 11.34,18.59L12.416,13.916C12.469,13.676 12.686,13.496 12.953,13.463L12.953,13.452L23.283,13.452C23.307,13.452 23.332,13.452 23.355,13.457C23.623,13.491 23.812,13.741 23.807,14.013L23.81,14.013Z" style="fill:rgb(10,228,72);fill-rule:nonzero;"/>
            </g>
            <g transform="matrix(4.166667,0,0,4.166667,245.833333,0)">
                <path d="M41.594,8.65C41.585,8.944 41.34,9.181 41.046,9.181L35.4,9.181C35.03,9.181 34.721,8.881 34.721,8.516C34.721,6.868 34.151,6.066 32.985,6.066C31.819,6.066 31.067,6.783 31.045,8.034C31.02,9.429 31.809,10.696 34.055,12.874C37.012,15.648 38.197,18.106 38.14,21.354C38.047,26.605 34.476,30 29.042,30C26.267,30 24.147,29.257 22.737,27.793C21.306,26.307 20.65,24.125 20.787,21.308C20.797,21.014 21.042,20.777 21.336,20.778L27.176,20.778C27.341,20.781 27.496,20.858 27.598,20.987C27.687,21.094 27.726,21.234 27.704,21.371C27.639,22.387 27.816,23.146 28.216,23.566C28.472,23.838 28.829,23.976 29.274,23.976C30.353,23.976 30.985,23.213 31.009,21.886C31.029,20.738 30.666,19.731 28.688,17.696C26.133,15.2 23.842,12.621 23.913,8.566C23.955,6.215 24.889,4.064 26.544,2.51C28.294,0.868 30.687,0 33.465,0C36.248,0.02 38.357,0.813 39.734,2.359C41.038,3.825 41.666,5.941 41.596,8.649L41.594,8.649L41.594,8.65Z" style="fill:rgb(10,228,72);fill-rule:nonzero;"/>
            </g>
            <g transform="matrix(4.166667,0,0,4.166667,245.833333,0)">
                <path d="M59.096,29.012L59.133,1.08C59.133,1.077 59.133,1.075 59.133,1.072C59.133,0.784 58.896,0.547 58.608,0.547C58.607,0.547 58.605,0.547 58.604,0.547L49.866,0.547C49.572,0.547 49.443,0.799 49.359,0.967L36.707,28.842L36.707,28.847L36.702,28.853C36.562,29.196 36.828,29.563 37.199,29.563L43.307,29.563C43.637,29.563 43.855,29.463 43.963,29.255L45.176,26.34C45.325,25.952 45.353,25.916 45.777,25.916L51.613,25.916C52.019,25.916 52.028,25.924 52.021,26.321L51.89,29.031C51.89,29.033 51.89,29.036 51.89,29.038C51.89,29.326 52.127,29.563 52.415,29.563C52.416,29.563 52.418,29.563 52.419,29.563L58.589,29.563C58.744,29.565 58.891,29.498 58.992,29.381C59.079,29.279 59.117,29.144 59.096,29.012ZM48.286,19.686C48.229,19.686 48.184,19.685 48.148,19.681C48.072,19.675 48.013,19.611 48.013,19.535C48.013,19.523 48.015,19.51 48.018,19.498C48.03,19.457 48.047,19.403 48.071,19.335L52.448,8.508C52.486,8.401 52.534,8.296 52.584,8.194C52.655,8.049 52.741,8.039 52.768,8.147C52.791,8.237 52.266,19.265 52.266,19.265C52.225,19.678 52.206,19.695 51.799,19.729L48.29,19.688L48.282,19.688L48.285,19.686L48.286,19.686Z" style="fill:rgb(10,228,72);fill-rule:nonzero;"/>
            </g>
            <g transform="matrix(4.166667,0,0,4.166667,245.833333,0)">
                <path d="M71.545,0.547L66.906,0.547C66.661,0.547 66.386,0.677 66.321,0.969L59.866,28.998C59.837,29.126 59.87,29.261 59.954,29.362C60.063,29.49 60.223,29.564 60.391,29.564L66.189,29.564C66.5,29.564 66.714,29.411 66.772,29.146C66.772,29.146 67.475,25.978 67.476,25.968C67.526,25.721 67.44,25.529 67.218,25.413C67.113,25.359 67.009,25.305 66.906,25.25L65.901,24.728L64.901,24.206L64.514,24.005C64.45,23.973 64.41,23.906 64.412,23.835C64.415,23.728 64.503,23.642 64.61,23.641L67.788,23.655C68.738,23.66 69.689,23.593 70.624,23.421C77.204,22.206 81.574,16.936 81.7,9.765C81.807,3.645 78.391,0.544 71.55,0.544L71.545,0.547ZM69.966,17.227L69.842,17.227C69.564,17.227 69.514,17.197 69.505,17.187C69.501,17.18 71.338,9.114 71.339,9.103C71.386,8.87 71.384,8.736 71.24,8.657C71.056,8.555 68.374,7.141 68.374,7.141C68.31,7.108 68.271,7.041 68.273,6.969C68.276,6.863 68.364,6.777 68.47,6.777L72.711,6.777C74.031,6.817 74.767,7.998 74.732,10.014C74.671,13.506 73.011,17.104 69.966,17.228L69.966,17.227Z" style="fill:rgb(10,228,72);fill-rule:nonzero;"/>
            </g>
        </g>
    </g>
</svg>
